icons/mobile/20/svg/tab-badge-fill-20.svg

<!-- This Source Code Form is subject to the terms of the Mozilla Public
   - License, v. 2.0. If a copy of the MPL was not distributed with this
   - file, You can obtain one at http://mozilla.org/MPL/2.0/. -->
<svg xmlns="http://www.w3.org/2000/svg" width="20" height="20" fill="none" viewBox="0 0 20 20">
    <path fill="#fff" d="M10.502 6c1.177 0 2.354.079 3.512.236A2.3 2.3 0 0 1 16 8.511v3.98c0 1.141-.843 2.116-1.96 2.268a26.3 26.3 0 0 1-7.054.003A2.3 2.3 0 0 1 5 12.487v-3.98c0-1.141.843-2.116 1.96-2.268A26 26 0 0 1 10.502 6m0-1.5a28 28 0 0 0-3.744.253C4.901 5.007 3.5 6.621 3.5 8.508v3.98a3.81 3.81 0 0 0 3.284 3.761 27.8 27.8 0 0 0 7.458-.003c1.857-.254 3.258-1.868 3.258-3.755v-3.98a3.81 3.81 0 0 0-3.284-3.761 28 28 0 0 0-3.714-.25" />
    <path fill="#000" d="M16 12.491c0 1.141-.843 2.116-1.96 2.268a26.3 26.3 0 0 1-7.054.003A2.3 2.3 0 0 1 5 12.487v-3.98c0-1.141.843-2.116 1.96-2.268a26.3 26.3 0 0 1 7.054-.003A2.3 2.3 0 0 1 16 8.511z" />
</svg>

<svg width="20" height="20" viewBox="0 0 20 20" fill="none" xmlns="http://www.w3.org/2000/svg">
<path d="M10.502 6C11.679 6 12.856 6.079 14.014 6.236C15.146 6.389 16 7.367 16 8.511V12.491C16 13.632 15.157 14.607 14.04 14.759C12.871 14.918 11.68 14.999 10.5 14.999C9.327 14.999 8.145 14.919 6.986 14.762C5.854 14.609 5 13.631 5 12.487V8.507C5 7.366 5.843 6.391 6.96 6.239C8.13 6.08 9.316 6 10.502 6ZM10.502 4.5C9.249 4.5 7.989 4.585 6.758 4.753C4.901 5.007 3.5 6.621 3.5 8.508V12.488C3.5 14.379 4.912 15.996 6.784 16.249C8.008 16.415 9.258 16.5 10.5 16.5C11.742 16.5 13.005 16.415 14.242 16.246C16.099 15.992 17.5 14.378 17.5 12.491V8.511C17.5 6.62 16.088 5.003 14.216 4.75C12.997 4.584 11.747 4.5 10.502 4.5Z" fill="white"/>
<path d="M16 12.491C16 13.632 15.157 14.607 14.04 14.759C12.871 14.918 11.68 14.999 10.5 14.999C9.327 14.999 8.145 14.919 6.986 14.762C5.854 14.609 5 13.631 5 12.487V8.50701C5 7.36601 5.843 6.39101 6.96 6.23901C9.291 5.92101 11.688 5.92001 14.014 6.23601C15.146 6.38901 16 7.36701 16 8.51101V12.491Z" fill="black"/>
</svg>
